BDOT10k_SVG/KARTO10k/0010_431_2.svg

﻿<?xml version="1.0" encoding="UTF-8"?>
<svg viewBox="-15 -15 30 30" xmlns="http://www.w3.org/2000/svg" xmlns:xlink="http://www.w3.org/1999/xlink" xmlns:gmsvgsym="http://www.intergraph.com/GeoMedia/svgsym">
  <!-- Creator: SVG Document for Symbols-->
  <polyline points="-14.9999994039536,-14.9999994039536 -14.9999994039536,14.9999994039536" style="  stroke-width: 0.0000010000; stroke-linecap: round;stroke: #4E4A96; fill: none; " xmlns="http://www.w3.org/2000/svg" />
  <polyline points="-14.9999994039536,14.9999994039536 14.9999994039536,14.9999994039536" style="  stroke-width: 0.0000010000; stroke-linecap: round;stroke: #4E4A96; fill: none; " xmlns="http://www.w3.org/2000/svg" />
  <polyline points="14.9999994039536,14.9999994039536 14.9999994039536,-14.9999994039536" style="  stroke-width: 0.0000010000; stroke-linecap: round;stroke: #4E4A96; fill: none; " xmlns="http://www.w3.org/2000/svg" />
  <polyline points="14.9999994039536,-14.9999994039536 -14.9999994039536,-14.9999994039536" style="  stroke-width: 0.0000010000; stroke-linecap: round;stroke: #4E4A96; fill: none; " xmlns="http://www.w3.org/2000/svg" />
  <g id="ComplexString2d_1194" style=" fill-rule: evenodd; stroke-width: 0.0000000000;stroke: #4E4A96; fill: #4E4A96; " xmlns="http://www.w3.org/2000/svg">
    <path d="M -14.9999994039536 14.9999994039536 L 14.9999994039536 14.9999994039536 L 14.9999994039536 -14.9999994039536 L -14.9999994039536 -14.9999994039536 L -14.9999994039536 14.9999994039536 " />
  </g>
  <polyline points="-13.0000006834264,-13.0000052834262 -13.0000006834264,12.9999936834267" style="  stroke-width: 0.0000010000; stroke-linecap: round;stroke: #d1ffff; fill: none; " xmlns="http://www.w3.org/2000/svg" />
  <polyline points="-13.0000006834264,12.9999936834267 12.9999982834265,12.9999936834267" style="  stroke-width: 0.0000010000; stroke-linecap: round;stroke: #d1ffff; fill: none; " xmlns="http://www.w3.org/2000/svg" />
  <polyline points="12.9999982834265,12.9999936834267 12.9999982834265,-13.0000052834262" style="  stroke-width: 0.0000010000; stroke-linecap: round;stroke: #d1ffff; fill: none; " xmlns="http://www.w3.org/2000/svg" />
  <polyline points="12.9999982834265,-13.0000052834262 -13.0000006834264,-13.0000052834262" style="  stroke-width: 0.0000010000; stroke-linecap: round;stroke: #d1ffff; fill: none; " xmlns="http://www.w3.org/2000/svg" />
  <g id="ComplexString2d_1195" style=" fill-rule: evenodd; stroke-width: 0.0000000000;stroke: #d1ffff; fill: #d1ffff; " xmlns="http://www.w3.org/2000/svg">
    <path d="M -13.0000006834264 12.9999936834267 L 12.9999982834265 12.9999936834267 L 12.9999982834265 -13.0000052834262 L -13.0000006834264 -13.0000052834262 L -13.0000006834264 12.9999936834267 " />
  </g>
</svg>

<?xml version="1.0" encoding="UTF-8" standalone="no"?>
<svg
   xmlns:dc="http://purl.org/dc/elements/1.1/"
   xmlns:cc="http://creativecommons.org/ns#"
   xmlns:rdf="http://www.w3.org/1999/02/22-rdf-syntax-ns#"
   xmlns:svg="http://www.w3.org/2000/svg"
   xmlns="http://www.w3.org/2000/svg"
   xmlns:xlink="http://www.w3.org/1999/xlink"
   xmlns:sodipodi="http://sodipodi.sourceforge.net/DTD/sodipodi-0.dtd"
   xmlns:inkscape="http://www.inkscape.org/namespaces/inkscape"
   viewBox="-15 -15 30 30"
   id="svg2"
   version="1.1"
   inkscape:version="0.48.3.1 r9886"
   width="100%"
   height="100%"
   sodipodi:docname="0010_431_2.svg">
  <metadata
     id="metadata30">
    <rdf:RDF>
      <cc:Work
         rdf:about="">
        <dc:format>image/svg+xml</dc:format>
        <dc:type
           rdf:resource="http://purl.org/dc/dcmitype/StillImage" />
      </cc:Work>
    </rdf:RDF>
  </metadata>
  <defs
     id="defs28">
    <color-profile
       name="sRGB-IEC61966-2.1"
       xlink:href="C:\WINDOWS\system32\spool\drivers\color\sRGB Color Space Profile.icm"
       id="color-profile3777" />
  </defs>
  <sodipodi:namedview
     pagecolor="#ffffff"
     bordercolor="#666666"
     borderopacity="1"
     objecttolerance="10"
     gridtolerance="10"
     guidetolerance="10"
     inkscape:pageopacity="0"
     inkscape:pageshadow="2"
     inkscape:window-width="1467"
     inkscape:window-height="743"
     id="namedview26"
     showgrid="false"
     inkscape:showpageshadow="false"
     inkscape:zoom="7.8666667"
     inkscape:cx="-32.79661"
     inkscape:cy="15.063559"
     inkscape:window-x="203"
     inkscape:window-y="34"
     inkscape:window-maximized="0"
     inkscape:current-layer="svg2"
     units="mm" />
  <!-- Creator: SVG Document for Symbols-->
  <polyline
     points="-14.9999994039536,-14.9999994039536 -14.9999994039536,14.9999994039536"
     style="fill:none;stroke:#4e4a96;stroke-width:0.000001;stroke-linecap:round"
     id="polyline4" />
  <polyline
     points="-14.9999994039536,14.9999994039536 14.9999994039536,14.9999994039536"
     style="fill:none;stroke:#4e4a96;stroke-width:0.000001;stroke-linecap:round"
     id="polyline6" />
  <polyline
     points="14.9999994039536,14.9999994039536 14.9999994039536,-14.9999994039536"
     style="fill:none;stroke:#4e4a96;stroke-width:0.000001;stroke-linecap:round"
     id="polyline8" />
  <polyline
     points="14.9999994039536,-14.9999994039536 -14.9999994039536,-14.9999994039536"
     style="fill:none;stroke:#4e4a96;stroke-width:0.000001;stroke-linecap:round"
     id="polyline10" />
  <g
     id="ComplexString2d_1194"
     style="fill:#4e4a96;fill-opacity:1;fill-rule:evenodd;stroke:none;stroke-width:0;stroke-opacity:1">
    <path
       d="m -14.999999,14.999999 29.999998,0 0,-29.999998 -29.999998,0 0,29.999998"
       id="path13"
       style="fill:#4e4a96;fill-opacity:1;stroke:none;stroke-opacity:1"
       inkscape:connector-curvature="0" />
  </g>
  <polyline
     points="-13.0000006834264,-13.0000052834262 -13.0000006834264,12.9999936834267"
     style="fill:none;stroke:#d1ffff;stroke-width:0.000001;stroke-linecap:round"
     id="polyline15" />
  <polyline
     points="-13.0000006834264,12.9999936834267 12.9999982834265,12.9999936834267"
     style="fill:none;stroke:#d1ffff;stroke-width:0.000001;stroke-linecap:round"
     id="polyline17" />
  <polyline
     points="12.9999982834265,12.9999936834267 12.9999982834265,-13.0000052834262"
     style="fill:none;stroke:#d1ffff;stroke-width:0.000001;stroke-linecap:round"
     id="polyline19" />
  <polyline
     points="12.9999982834265,-13.0000052834262 -13.0000006834264,-13.0000052834262"
     style="fill:none;stroke:#d1ffff;stroke-width:0.000001;stroke-linecap:round"
     id="polyline21" />
  <g
     id="ComplexString2d_1195"
     style="fill:#d9effa;fill-opacity:1;fill-rule:evenodd;stroke:none;stroke-width:0;stroke-opacity:1">
    <path
       d="m -13.000001,12.999994 25.999999,0 0,-25.999999 -25.999999,0 0,25.999999"
       id="path24"
       style="fill:#d9effa;fill-opacity:1;stroke:none;stroke-opacity:1"
       inkscape:connector-curvature="0" />
  </g>
</svg>
